src/images/_svg/react.svg

<?xml version="1.0" encoding="UTF-8"?>
<svg width="100%" height="100%" viewBox="0 0 256 228" version="1.1" xmlns="http://www.w3.org/2000/svg" xmlns:xlink="http://www.w3.org/1999/xlink" preserveAspectRatio="xMidYMid">
    <g>
        <path d="M210.483381,73.8236374 C207.827698,72.9095503 205.075867,72.0446761 202.24247,71.2267368 C202.708172,69.3261098 203.135596,67.4500894 203.515631,65.6059664 C209.753843,35.3248922 205.675082,10.9302478 191.747328,2.89849283 C178.392359,-4.80289661 156.551327,3.22703567 134.492936,22.4237776 C132.371761,24.2697233 130.244662,26.2241201 128.118477,28.2723861 C126.701777,26.917204 125.287358,25.6075897 123.876584,24.3549348 C100.758745,3.82852863 77.5866802,-4.82157937 63.6725966,3.23341515 C50.3303869,10.9571328 46.3792156,33.8904224 51.9945178,62.5880206 C52.5367729,65.3599011 53.1706189,68.1905639 53.8873982,71.068617 C50.6078941,71.9995641 47.4418534,72.9920277 44.4125156,74.0478303 C17.3093297,83.497195 0,98.3066828 0,113.667995 C0,129.533287 18.5815786,145.446423 46.8116526,155.095373 C49.0394553,155.856809 51.3511025,156.576778 53.7333796,157.260293 C52.9600965,160.37302 52.2875179,163.423318 51.7229345,166.398431 C46.3687351,194.597975 50.5500231,216.989464 63.8566899,224.664425 C77.6012619,232.590464 100.66852,224.443422 123.130185,204.809231 C124.905501,203.257196 126.687196,201.611293 128.472081,199.886102 C130.785552,202.113904 133.095375,204.222319 135.392897,206.199955 C157.14963,224.922338 178.637969,232.482469 191.932332,224.786092 C205.663234,216.837268 210.125675,192.78347 204.332202,163.5181 C203.88974,161.283006 203.374826,158.99961 202.796573,156.675661 C204.416503,156.196743 206.006814,155.702335 207.557482,155.188332 C236.905331,145.46465 256,129.745175 256,113.667995 C256,98.2510906 238.132466,83.3418093 210.483381,73.8236374 L210.483381,73.8236374 Z M204.118035,144.807565 C202.718197,145.270987 201.281904,145.718918 199.818271,146.153177 C196.578411,135.896354 192.205739,124.989735 186.854729,113.72131 C191.961041,102.721277 196.164656,91.9540963 199.313837,81.7638014 C201.93261,82.5215915 204.474374,83.3208483 206.923636,84.1643056 C230.613348,92.3195488 245.063763,104.377206 245.063763,113.667995 C245.063763,123.564379 229.457753,136.411268 204.118035,144.807565 L204.118035,144.807565 Z M193.603754,165.642007 C196.165567,178.582766 196.531475,190.282717 194.834536,199.429057 C193.309843,207.64764 190.243595,213.12715 186.452366,215.321689 C178.384612,219.991462 161.131788,213.921395 142.525146,197.909832 C140.392124,196.074366 138.243609,194.114502 136.088259,192.040261 C143.301619,184.151133 150.510878,174.979732 157.54698,164.793993 C169.922699,163.695814 181.614905,161.900447 192.218042,159.449363 C192.740247,161.555956 193.204126,163.621993 193.603754,165.642007 L193.603754,165.642007 Z M87.2761866,214.514686 C79.3938934,217.298414 73.1160375,217.378157 69.3211631,215.189998 C61.2461189,210.532528 57.8891498,192.554265 62.4682434,168.438039 C62.9927272,165.676183 63.6170041,162.839142 64.3365173,159.939216 C74.8234575,162.258154 86.4299951,163.926841 98.8353334,164.932519 C105.918826,174.899534 113.336329,184.06091 120.811247,192.08264 C119.178102,193.65928 117.551336,195.16028 115.933685,196.574699 C106.001303,205.256705 96.0479605,211.41654 87.2761866,214.514686 L87.2761866,214.514686 Z M50.3486141,144.746959 C37.8658105,140.48046 27.5570398,134.935332 20.4908634,128.884403 C14.1414664,123.446815 10.9357817,118.048415 10.9357817,113.667995 C10.9357817,104.34622 24.8334611,92.4562517 48.0123604,84.3748281 C50.8247961,83.3942121 53.7689223,82.4701001 56.8242337,81.6020363 C60.0276398,92.0224477 64.229889,102.917218 69.3011135,113.93411 C64.1642716,125.11459 59.9023288,136.182975 56.6674809,146.725506 C54.489347,146.099407 52.3791089,145.440499 50.3486141,144.746959 L50.3486141,144.746959 Z M62.7270678,60.4878073 C57.9160346,35.9004118 61.1112387,17.3525532 69.1516515,12.6982729 C77.7160924,7.74005624 96.6544653,14.8094222 116.614922,32.5329619 C117.890816,33.6657739 119.171723,34.8514442 120.456275,36.0781256 C113.018267,44.0647686 105.66866,53.1573386 98.6480514,63.0655695 C86.6081646,64.1815215 75.0831931,65.9741531 64.4868907,68.3746571 C63.8206914,65.6948233 63.2305903,63.0619242 62.7270678,60.4878073 L62.7270678,60.4878073 Z M173.153901,87.7550367 C170.620796,83.3796304 168.020249,79.1076627 165.369124,74.9523483 C173.537126,75.9849113 181.362914,77.3555864 188.712066,79.0329319 C186.505679,86.1041206 183.755673,93.4974728 180.518546,101.076741 C178.196419,96.6680702 175.740322,92.2229454 173.153901,87.7550367 L173.153901,87.7550367 Z M128.122121,43.8938899 C133.166461,49.3588189 138.218091,55.4603279 143.186789,62.0803968 C138.179814,61.8439007 133.110868,61.720868 128.000001,61.720868 C122.937434,61.720868 117.905854,61.8411667 112.929865,62.0735617 C117.903575,55.515009 122.99895,49.4217021 128.122121,43.8938899 L128.122121,43.8938899 Z M82.8018984,87.830679 C80.2715265,92.2183886 77.8609975,96.6393627 75.5753239,101.068539 C72.3906004,93.5156998 69.6661103,86.0886276 67.440586,78.9171899 C74.7446255,77.2826781 82.5335049,75.9461789 90.6495601,74.9332099 C87.9610684,79.1268011 85.3391054,83.4302106 82.8018984,87.8297677 L82.8018984,87.830679 L82.8018984,87.830679 Z M90.8833221,153.182899 C82.4979621,152.247395 74.5919739,150.979704 67.289757,149.390303 C69.5508242,142.09082 72.3354636,134.505173 75.5876271,126.789657 C77.8792246,131.215644 80.2993228,135.638441 82.8451877,140.03572 L82.8456433,140.03572 C85.4388987,144.515476 88.1255676,148.90364 90.8833221,153.182899 L90.8833221,153.182899 Z M128.424691,184.213105 C123.24137,178.620587 118.071264,172.434323 113.021912,165.780078 C117.923624,165.972373 122.921029,166.0708 128.000001,166.0708 C133.217953,166.0708 138.376211,165.953235 143.45336,165.727219 C138.468257,172.501308 133.434855,178.697141 128.424691,184.213105 L128.424691,184.213105 Z M180.622896,126.396409 C184.044571,134.195313 186.929004,141.741317 189.219234,148.9164 C181.796719,150.609693 173.782736,151.973534 165.339049,152.986959 C167.996555,148.775595 170.619884,144.430263 173.197646,139.960532 C175.805484,135.438399 178.28163,130.90943 180.622896,126.396409 L180.622896,126.396409 Z M163.724586,134.496971 C159.722835,141.435557 155.614455,148.059271 151.443648,154.311611 C143.847063,154.854776 135.998946,155.134562 128.000001,155.134562 C120.033408,155.134562 112.284171,154.887129 104.822013,154.402745 C100.48306,148.068386 96.285368,141.425078 92.3091341,134.556664 L92.3100455,134.556664 C88.3442923,127.706935 84.6943232,120.799333 81.3870228,113.930466 C84.6934118,107.045648 88.3338117,100.130301 92.276781,93.292874 L92.2758697,93.294241 C96.2293193,86.4385872 100.390102,79.8276317 104.688954,73.5329157 C112.302398,72.9573964 120.109505,72.6571055 127.999545,72.6571055 L128.000001,72.6571055 C135.925583,72.6571055 143.742714,72.9596746 151.353879,73.5402067 C155.587114,79.7888993 159.719645,86.3784378 163.688588,93.2350031 C167.702644,100.168578 171.389978,107.037901 174.724618,113.77508 C171.400003,120.627999 167.720871,127.566587 163.724586,134.496971 L163.724586,134.496971 Z M186.284677,12.3729198 C194.857321,17.3165548 198.191049,37.2542268 192.804953,63.3986692 C192.461372,65.0669011 192.074504,66.7661189 191.654369,68.4881206 C181.03346,66.0374921 169.500286,64.2138746 157.425315,63.0810626 C150.391035,53.0639249 143.101577,43.9572289 135.784778,36.073113 C137.751934,34.1806885 139.716356,32.3762092 141.672575,30.673346 C160.572216,14.2257007 178.236518,7.73185406 186.284677,12.3729198 L186.284677,12.3729198 Z M128.000001,90.8080696 C140.624975,90.8080696 150.859926,101.042565 150.859926,113.667995 C150.859926,126.292969 140.624975,136.527922 128.000001,136.527922 C115.375026,136.527922 105.140075,126.292969 105.140075,113.667995 C105.140075,101.042565 115.375026,90.8080696 128.000001,90.8080696 L128.000001,90.8080696 Z" fill="#00D8FF"></path>
    </g>
</svg>

<svg viewBox="0 0 256 228" xmlns="http://www.w3.org/2000/svg" preserveAspectRatio="xMidYMid">
  <path d="M210.483 73.824a171.49 171.49 0 0 0-8.24-2.597c.465-1.9.893-3.777 1.273-5.621 6.238-30.281 2.16-54.676-11.769-62.708-13.355-7.7-35.196.329-57.254 19.526a171.23 171.23 0 0 0-6.375 5.848 155.866 155.866 0 0 0-4.241-3.917C100.759 3.829 77.587-4.822 63.673 3.233 50.33 10.957 46.379 33.89 51.995 62.588a170.974 170.974 0 0 0 1.892 8.48c-3.28.932-6.445 1.924-9.474 2.98C17.309 83.498 0 98.307 0 113.668c0 15.865 18.582 31.778 46.812 41.427a145.52 145.52 0 0 0 6.921 2.165 167.467 167.467 0 0 0-2.01 9.138c-5.354 28.2-1.173 50.591 12.134 58.266 13.744 7.926 36.812-.22 59.273-19.855a145.567 145.567 0 0 0 5.342-4.923 168.064 168.064 0 0 0 6.92 6.314c21.758 18.722 43.246 26.282 56.54 18.586 13.731-7.949 18.194-32.003 12.4-61.268a145.016 145.016 0 0 0-1.535-6.842c1.62-.48 3.21-.974 4.76-1.488 29.348-9.723 48.443-25.443 48.443-41.52 0-15.417-17.868-30.326-45.517-39.844zm-6.365 70.984c-1.4.463-2.836.91-4.3 1.345-3.24-10.257-7.612-21.163-12.963-32.432 5.106-11 9.31-21.767 12.459-31.957 2.619.758 5.16 1.557 7.61 2.4 23.69 8.156 38.14 20.213 38.14 29.504 0 9.896-15.606 22.743-40.946 31.14zm-10.514 20.834c2.562 12.94 2.927 24.64 1.23 33.787-1.524 8.219-4.59 13.698-8.382 15.893-8.067 4.67-25.32-1.4-43.927-17.412a156.726 156.726 0 0 1-6.437-5.87c7.214-7.889 14.423-17.06 21.459-27.246 12.376-1.098 24.068-2.894 34.671-5.345.522 2.107.986 4.173 1.386 6.193zM87.276 214.515c-7.882 2.783-14.16 2.863-17.955.675-8.075-4.657-11.432-22.636-6.853-46.752a156.923 156.923 0 0 1 1.869-8.499c10.486 2.32 22.093 3.988 34.498 4.994 7.084 9.967 14.501 19.128 21.976 27.15a134.668 134.668 0 0 1-4.877 4.492c-9.933 8.682-19.886 14.842-28.658 17.94zM50.35 144.747c-12.483-4.267-22.792-9.812-29.858-15.863-6.35-5.437-9.555-10.836-9.555-15.216 0-9.322 13.897-21.212 37.076-29.293 2.813-.98 5.757-1.905 8.812-2.773 3.204 10.42 7.406 21.315 12.477 32.332-5.137 11.18-9.399 22.249-12.634 32.792a134.718 134.718 0 0 1-6.318-1.979zm12.378-84.26c-4.811-24.587-1.616-43.134 6.425-47.789 8.564-4.958 27.502 2.111 47.463 19.835a144.318 144.318 0 0 1 3.841 3.545c-7.438 7.987-14.787 17.08-21.808 26.988-12.04 1.116-23.565 2.908-34.161 5.309a160.342 160.342 0 0 1-1.76-7.887zm110.427 27.268a347.8 347.8 0 0 0-7.785-12.803c8.168 1.033 15.994 2.404 23.343 4.08-2.206 7.072-4.956 14.465-8.193 22.045a381.151 381.151 0 0 0-7.365-13.322zm-45.032-43.861c5.044 5.465 10.096 11.566 15.065 18.186a322.04 322.04 0 0 0-30.257-.006c4.974-6.559 10.069-12.652 15.192-18.18zM82.802 87.83a323.167 323.167 0 0 0-7.227 13.238c-3.184-7.553-5.909-14.98-8.134-22.152 7.304-1.634 15.093-2.97 23.209-3.984a321.524 321.524 0 0 0-7.848 12.897zm8.081 65.352c-8.385-.936-16.291-2.203-23.593-3.793 2.26-7.3 5.045-14.885 8.298-22.6a321.187 321.187 0 0 0 7.257 13.246c2.594 4.48 5.28 8.868 8.038 13.147zm37.542 31.03c-5.184-5.592-10.354-11.779-15.403-18.433 4.902.192 9.899.29 14.978.29 5.218 0 10.376-.117 15.453-.343-4.985 6.774-10.018 12.97-15.028 18.486zm52.198-57.817c3.422 7.8 6.306 15.345 8.596 22.52-7.422 1.694-15.436 3.058-23.88 4.071a382.417 382.417 0 0 0 7.859-13.026 347.403 347.403 0 0 0 7.425-13.565zm-16.898 8.101a358.557 358.557 0 0 1-12.281 19.815 329.4 329.4 0 0 1-23.444.823c-7.967 0-15.716-.248-23.178-.732a310.202 310.202 0 0 1-12.513-19.846h.001a307.41 307.41 0 0 1-10.923-20.627 310.278 310.278 0 0 1 10.89-20.637l-.001.001a307.318 307.318 0 0 1 12.413-19.761c7.613-.576 15.42-.876 23.31-.876H128c7.926 0 15.743.303 23.354.883a329.357 329.357 0 0 1 12.335 19.695 358.489 358.489 0 0 1 11.036 20.54 329.472 329.472 0 0 1-11 20.722zm22.56-122.124c8.572 4.944 11.906 24.881 6.52 51.026-.344 1.668-.73 3.367-1.15 5.09-10.622-2.452-22.155-4.275-34.23-5.408-7.034-10.017-14.323-19.124-21.64-27.008a160.789 160.789 0 0 1 5.888-5.4c18.9-16.447 36.564-22.941 44.612-18.3zM128 90.808c12.625 0 22.86 10.235 22.86 22.86s-10.235 22.86-22.86 22.86-22.86-10.235-22.86-22.86 10.235-22.86 22.86-22.86z" fill="#00D8FF"/>
</svg>
